X:355
T: Johnny Mick Dinny's
S: "Johnny O'Leary of Sliabh Luachra" (#95)
Z: B.Black
L: 1/8
M: 12/8
R: slide
Q: 350
K: Ador
d2B AGE c2B c^cd|efg edB g g2-ged|
eaf g2e dBA G2A|B/c/eB dBG A2B c2B|
A2A AGE c2B c^cd|efg edB g g2-ged|
eaf gfe dBA G2A|B/c/eB dBG A3 A3 ||
e2a age dgf ged|eag agf g g2-ged|
eaf g2e dBA G2A|B/c/eB dBG A3 A3|
e2a age d2g gfg|e2a age deg f2g|
eaa g2e dBA GAB|c2e d2B A3 A3 ||
